assets/list-li.svg

<svg xmlns="http://www.w3.org/2000/svg" fill="none" viewBox="0 0 25 18">
  <path fill="#2A2238" d="M5 1h18c2 .5 2 3.5 0 4H5V1Zm0 6h18c2 .5 2 3.5 0 4H5V7Zm0 6h18c2 .5 2 3.5 0 4H5v-4ZM3.11377 1.44287V5h-.76416V2.31201l-.8252.25147v-.59082l1.51368-.52979h.07568Zm.68848 8.96383V11H1.34619v-.5029l1.14746-1.21585c.10742-.1237.19287-.23275.25635-.32715.0651-.0944.1123-.17985.1416-.25635.0293-.07812.04395-.14974.04395-.21484 0-.10579-.01709-.19531-.05127-.26855-.03255-.07325-.08057-.1294-.14405-.16846-.06347-.03906-.14078-.0586-.23193-.0586-.09766 0-.18148.02523-.25146.07569-.06999.05045-.1237.12044-.16114.20996-.03743.08789-.05615.18799-.05615.30029h-.7666c0-.21647.05208-.41341.15625-.59082.10417-.17903.24984-.32145.43701-.42724.18718-.10743.40609-.16114.65674-.16114.25716 0 .47282.04069.64697.12207.17416.08138.30599.19776.39551.34912.08952.15137.13428.33366.13428.54688 0 .12044-.01953.23682-.0586.34912-.03743.11231-.09196.2238-.16357.33447-.07162.11068-.15788.2238-.25879.33936-.10091.11393-.21484.23437-.3418.36133l-.53711.61031h1.46241Zm-1.7212 4.4912h.38819c.11068 0 .20182-.0195.27344-.0585.07324-.0391.12695-.0944.16113-.1661.03581-.0716.05371-.1554.05371-.2514 0-.083-.01628-.1571-.04883-.2222-.03255-.0651-.08219-.1164-.14892-.1538-.06511-.0391-.14974-.0586-.25391-.0586-.07487 0-.14648.0155-.21484.0464-.06674.0293-.12126.0724-.16358.1294-.04232.0553-.06348.1221-.06348.2002H1.2998c0-.1986.05372-.3703.16114-.5152.10905-.1448.25309-.2563.43213-.3344.18066-.0798.3776-.1197.59082-.1197.24576 0 .46142.0391.64697.1172.18717.0765.33203.1905.43457.3418.10417.1498.15625.3353.15625.5567 0 .1155-.02767.227-.08301.3344-.05371.1058-.13102.2002-.23193.2832-.09929.0814-.2181.1465-.35645.1954-.13672.0472-.2889.0708-.45654.0708h-.5127v-.3956Zm0 .5738v-.3882h.5127c.18555 0 .35156.0212.49805.0635.14648.0423.27099.1033.37353.1831.10254.0797.18067.1766.23438.2905.05371.1139.08056.2409.08056.3809 0 .166-.03255.3141-.09765.4443-.06511.1302-.15625.2401-.27344.3296-.11719.0895-.25472.1579-.4126.2051-.15788.0455-.32877.0683-.51269.0683-.14812 0-.29541-.0203-.4419-.061-.14648-.0407-.27913-.1025-.39795-.1856-.11881-.0846-.21403-.1912-.28564-.3198-.07162-.1302-.10742-.2848-.10742-.4638h.76416c0 .083.02116.1578.06347.2246.04395.0651.10336.1172.17823.1562.07649.0374.1595.0562.24902.0562.10742 0 .19857-.0196.27344-.0586.07649-.0407.13427-.0961.17334-.166.04069-.07.06103-.1506.06103-.2417 0-.1237-.02197-.223-.06592-.2979-.04231-.0765-.10416-.1318-.18554-.166-.08138-.0358-.17904-.0537-.29297-.0537h-.38819Z"/>
</svg>

<svg width="25" height="18" viewBox="0 0 25 18" fill="none" xmlns="http://www.w3.org/2000/svg">
<path d="M5 1H23C25 1.5 25 4.5 23 5H5V1Z" fill="#2A2238"/>
<path d="M5 7H23C25 7.5 25 10.5 23 11H5V7Z" fill="#2A2238"/>
<path d="M5 13H23C25 13.5 25 16.5 23 17H5V13Z" fill="#2A2238"/>
<path d="M3.11377 1.44287V5H2.34961V2.31201L1.52441 2.56348V1.97266L3.03809 1.44287H3.11377Z" fill="#2A2238"/>
<path d="M3.80225 10.4067V11H1.34619V10.4971L2.49365 9.28125C2.60107 9.15755 2.68652 9.0485 2.75 8.9541C2.8151 8.8597 2.8623 8.77425 2.8916 8.69775C2.9209 8.61963 2.93555 8.54801 2.93555 8.48291C2.93555 8.37712 2.91846 8.2876 2.88428 8.21436C2.85173 8.14111 2.80371 8.08496 2.74023 8.0459C2.67676 8.00684 2.59945 7.9873 2.5083 7.9873C2.41064 7.9873 2.32682 8.01253 2.25684 8.06299C2.18685 8.11344 2.13314 8.18343 2.0957 8.27295C2.05827 8.36084 2.03955 8.46094 2.03955 8.57324H1.27295C1.27295 8.35677 1.32503 8.15983 1.4292 7.98242C1.53337 7.80339 1.67904 7.66097 1.86621 7.55518C2.05339 7.44775 2.2723 7.39404 2.52295 7.39404C2.78011 7.39404 2.99577 7.43473 3.16992 7.51611C3.34408 7.59749 3.47591 7.71387 3.56543 7.86523C3.65495 8.0166 3.69971 8.19889 3.69971 8.41211C3.69971 8.53255 3.68018 8.64893 3.64111 8.76123C3.60368 8.87354 3.54915 8.98503 3.47754 9.0957C3.40592 9.20638 3.31966 9.3195 3.21875 9.43506C3.11784 9.54899 3.00391 9.66943 2.87695 9.79639L2.33984 10.4067H3.80225Z" fill="#2A2238"/>
<path d="M2.08105 14.8979H2.46924C2.57992 14.8979 2.67106 14.8784 2.74268 14.8394C2.81592 14.8003 2.86963 14.745 2.90381 14.6733C2.93962 14.6017 2.95752 14.5179 2.95752 14.4219C2.95752 14.3389 2.94124 14.2648 2.90869 14.1997C2.87614 14.1346 2.8265 14.0833 2.75977 14.0459C2.69466 14.0068 2.61003 13.9873 2.50586 13.9873C2.43099 13.9873 2.35938 14.0028 2.29102 14.0337C2.22428 14.063 2.16976 14.1061 2.12744 14.1631C2.08512 14.2184 2.06396 14.2852 2.06396 14.3633H1.2998C1.2998 14.1647 1.35352 13.993 1.46094 13.8481C1.56999 13.7033 1.71403 13.5918 1.89307 13.5137C2.07373 13.4339 2.27067 13.394 2.48389 13.394C2.72965 13.394 2.94531 13.4331 3.13086 13.5112C3.31803 13.5877 3.46289 13.7017 3.56543 13.853C3.6696 14.0028 3.72168 14.1883 3.72168 14.4097C3.72168 14.5252 3.69401 14.6367 3.63867 14.7441C3.58496 14.8499 3.50765 14.9443 3.40674 15.0273C3.30745 15.1087 3.18864 15.1738 3.05029 15.2227C2.91357 15.2699 2.76139 15.2935 2.59375 15.2935H2.08105V14.8979ZM2.08105 15.4717V15.0835H2.59375C2.7793 15.0835 2.94531 15.1047 3.0918 15.147C3.23828 15.1893 3.36279 15.2503 3.46533 15.3301C3.56787 15.4098 3.646 15.5067 3.69971 15.6206C3.75342 15.7345 3.78027 15.8615 3.78027 16.0015C3.78027 16.1675 3.74772 16.3156 3.68262 16.4458C3.61751 16.576 3.52637 16.6859 3.40918 16.7754C3.29199 16.8649 3.15446 16.9333 2.99658 16.9805C2.8387 17.026 2.66781 17.0488 2.48389 17.0488C2.33577 17.0488 2.18848 17.0285 2.04199 16.9878C1.89551 16.9471 1.76286 16.8853 1.64404 16.8022C1.52523 16.7176 1.43001 16.611 1.3584 16.4824C1.28678 16.3522 1.25098 16.1976 1.25098 16.0186H2.01514C2.01514 16.1016 2.0363 16.1764 2.07861 16.2432C2.12256 16.3083 2.18197 16.3604 2.25684 16.3994C2.33333 16.4368 2.41634 16.4556 2.50586 16.4556C2.61328 16.4556 2.70443 16.436 2.7793 16.397C2.85579 16.3563 2.91357 16.3009 2.95264 16.231C2.99333 16.161 3.01367 16.0804 3.01367 15.9893C3.01367 15.8656 2.9917 15.7663 2.94775 15.6914C2.90544 15.6149 2.84359 15.5596 2.76221 15.5254C2.68083 15.4896 2.58317 15.4717 2.46924 15.4717H2.08105Z" fill="#2A2238"/>
</svg>
